source/svgs/bowtie/uEA54-step-shared-add.svg

<svg xmlns="http://www.w3.org/2000/svg" viewBox="0 0 448 448" enable-background="new 0 0 448 448"><path d="M64 96h-64v-32h64v-64h32v64h64v32h-64v64h-32v-64zm384 128v224h-384v-128h96v-96h96v-96h160v96h32zm-64 0v-64h-96v96h-96v96h-96v64h128v-96h96v-96h64z"/></svg>

<svg xmlns="http://www.w3.org/2000/svg" viewBox="0 0 448 448"><path d="M64 96H0V64h64V0h32v64h64v32H96v64H64V96zm384 128v224H64V320h96v-96h96v-96h160v96h32zm-64 0v-64h-96v96h-96v96H96v64h128v-96h96v-96h64z"/></svg>
